X:1
T:Bless the Lord, CM
T:Bless the Lord, CM
T:James McGranahan (1840-1907)
T:Public Domain Courtesy of the Cyber Hymnal™
C:James McGranahan (1840-1907)
Z:Public Domain
Z:Courtesy of the Cyber Hymnal™
%%score ( 1 2 ) ( 3 4 )
L:1/8
Q:1/4=113
M:4/4
K:A
V:1 treble 
V:2 treble 
V:3 bass 
V:4 bass 
V:1
 [Ec]2 | [DB]2 [CA]2 [EG]2 [DF]2 | [CE]3 [DF] [CE]2 [A,C]2 | [CE]2 [EA]2 [DG]2 [CA]2 | %4
 [EB]6 [Ed]2 | [Ec]2 (BA) [EG]2 [DF]2 | [CE]3 [DF] [CE]2 E2 | [DF]2 [FB]2 [EA]2 [EG]2 | [EA]6 |] %9
V:2
 x2 | x8 | x8 | x8 | x8 | x2 E2 x4 | x6 E2 | x8 | x6 |] %9
V:3
 [A,,A,]2 | [A,,A,]2 [A,,E,]2 [A,,C,]2 (D,F,) | [A,,A,]3 [A,,A,] [A,,A,]2 [A,,E,]2 | %3
 [A,,A,]2 [C,A,]2 [B,,E,]2 [A,,A,]2 | [E,G,]6 [E,B,]2 | [A,,A,]2 (G,F,) [A,,E,]2 [A,,A,]2 | %6
 [A,,A,]3 [A,,A,] [A,,A,]2 [C,A,]2 | [D,A,]2 [D,D]2 [E,C]2 [E,B,]2 | [A,,C]6 |] %9
V:4
 x2 | x6 A,,2 | x8 | x8 | x8 | x2 A,,2 x4 | x8 | x8 | x6 |] %9

